X: 3
%%etbk:tnset id:1,pos:3,rep:3
%%etbk:site1 http://www.thesession.org/tunes/display/3270
T: Road To Cashel, The
Z: Piano Box Version by Martin Fleischmann (www.boxplayer.ch)
M: 4/4
L: 1/8
R: Reel
K: Edor
!2!F!1!EE!2!D !1!E3!5!B|!2!F!1!E~E2 !2!F2!4!A!5!B|FEED E2!5!B!4!A|1 !2!F!1!DD2 !4!B!5!d!3!A!4!B:|2 !2!F!1!DD2 !2!B!4!d!1!A!4!d||
!2!B!1!A!2!B!4!d !2!egfe|!1!d2!4!a!5!b !4!a!3!f!2!e!1!d|!2!B!1!d !4!g!2!e !3!~f3e|!1!d!2!B!1!A!2!F F!1!EE2|
BABd egfe|d2ab afef|!5!b!3!f!2!f!2!f !4!a!3!f!2!f!3!f|!5!b!3!f!4!a!3!f !2!e!1!d!2!B!1!A||

